X:1
T:The Glorious Hope
T:The Glorious Hope
T:Public Domain
T:Public Domain
Z:Public Domain
%%score ( 1 2 ) ( 3 4 )
L:1/8
M:4/4
K:Ab
V:1 treble 
V:2 treble 
V:3 bass 
V:4 bass 
V:1
 [CE]>[CE] | [CA]2 [DA]2 [CA]2 [EA]>[EG] | [EG]>[DF] [DF]>[D=E] [DF]2 [DF]>[DF] | %3
w: 1.~There’s a|glor- ious hope thrill- ing|Christ- ian souls to- day, And our|
w: 2.~As we|wait for Him, dai- ly|watch- ing and in prayer, What a|
w: 3.~Is your|heart at rest? Have you|giv- en all to God? Are you|
 [=DB]2 [EB]2 [DB]2 [FB]>[FA] | [FA]>[EG] [EG]>[E^F] [EG]2 E>E | [Ec]2 [=Ec]2 [Fc]2 [Fd]>[_Ec] | %6
w: hearts beat high as in|faith we watch and pray, Look- ing|Him who shall call His|
w: peace He gives, what a|joy be- yond com- pare; Just a|here of the rap- ture|
w: full- y cleansed in the|Sav- ior’s pre- cious blood? Are you|now in the path that|
 [Ec]>[DB] [DB]>[DA] [DF]2 [DA]>[DF] | [CE] [Ec]3 [Ec]2 [EA]2 | (G2 E2) [EA]2 || %9
w: own a- way To the glo- ry|o- ver yon- der.||
w: we will share In the glo- ry|o- ver yon- der.|In * the|
w: Je- sus trod To the glo- ry|o- ver yon- der?||
"^Refrain" [Ge]>[Fd] | [Ec]2 [CE]2 [DF]2 [Fd]2 | [Ec]4 [EA]2 [EG]>[EA] | %12
w: |||
w: ry o-|ver yon- der, We|shall meet Him by|
w: |||
 [GB]>[GB] [GB]>[Ac] [GB]2 [FA]>[EB] | [Ec]>[Ec] [Ec]>[Fd] | [Ec]2 [Ge]>[Fd] | %15
w: |||
w: and by, We shall greet Him in|the sky; Prais- ing|Him in love|
w: |||
 [Ec]2 [CE]2 [DF]2 [Fd]2 | [Ec]4 [CA]2 [CE]>[CE] | [DF] [Fd]3 [Ec]2 [EA]2 | (G2 E2) [EA]2 |] %19
w: ||||
w: and won- der, In|the glo- ry o-|ver yon- der. *||
w: ||||
V:2
 x2 | x8 | x8 | x8 | x6 E>E | x8 | x8 | x8 | B4 x2 || x2 | x8 | x8 | x8 | x4 | x4 | x8 | x8 | x8 | %18
w: ||||un- to||||||||||||||
w: ||||fore- taste||||glo-||||||||||
w: ||||walk- ing||||||||||||||
 B4 x2 |] %19
w: |
w: |
w: |
V:3
 [A,,A,]>[A,,A,] | [A,,E,]2 [A,,F,]2 [A,,E,]2 [C,A,]>[C,A,] | %2
 [D,A,]>[D,A,] [D,A,]>[D,G,] [D,A,]2 [D,A,]>[D,A,] | [B,,A,]2 [B,,G,]2 [B,,F,]2 [=D,B,]>[D,B,] | %4
 [E,B,]>[E,B,] [E,B,]>[E,=A,] [E,B,]2 [G,B,]>[G,B,] | A,2 [G,B,]2 [F,_A,]2 [F,=A,]>[F,A,] | %6
 [B,,B,]>[B,,F,] [D,F,]>[D,F,] [D,A,]2 [D,F,]>[D,A,] | [E,A,] [E,A,]3 [E,A,]2 [E,C]2 | %8
 (E2 D2) [A,C]2 || [E,B,]>[E,G,] | [A,,A,]2 [A,,A,]2 [D,A,]2 [D,A,]2 | %11
 [A,,A,]4 [A,,C]2 [E,B,]>[E,C] | [E,E]>[E,E] [E,E]>[E,E] (ED) [F,C]>[G,B,] | A,>A, A,>A, | %14
 A,2 [E,B,]>[E,G,] | [A,,A,]2 [A,,A,]2 [D,A,]2 [D,A,]2 | [A,,A,]4 [A,,E,]2 [A,,A,]>[A,,A,] | %17
 [D,A,] [D,A,]3 [E,A,]2 [E,C]2 | (E2 D2) [A,,C]2 |] %19
V:4
 x2 | x8 | x8 | x8 | x8 | =A,2 x6 | x8 | x8 | E,4 x2 || x2 | x8 | x8 | x4 E,2 x2 | A,>A, A,>A, | %14
 A,2 x2 | x8 | x8 | x8 | E,4 x2 |] %19

